icons/maia/apps/scalable/scorched3d.svg

<svg xmlns="http://www.w3.org/2000/svg" viewBox="0 0 48 48">
 <defs>
  <linearGradient id="linearGradient3869" y1="47" x2="0" y2="1" gradientUnits="userSpaceOnUse">
   <stop style="stop-color:#e93535;stop-opacity:1"/>
   <stop offset="1" style="stop-color:#eb4747;stop-opacity:1"/>
  </linearGradient>
 </defs>
 <g>
  <path d="m 36.31 5 c 5.859 4.062 9.688 10.831 9.688 18.5 c 0 12.426 -10.07 22.5 -22.5 22.5 c -7.669 0 -14.438 -3.828 -18.5 -9.688 c 1.037 1.822 2.306 3.499 3.781 4.969 c 4.085 3.712 9.514 5.969 15.469 5.969 c 12.703 0 23 -10.298 23 -23 c 0 -5.954 -2.256 -11.384 -5.969 -15.469 c -1.469 -1.475 -3.147 -2.744 -4.969 -3.781 z m 4.969 3.781 c 3.854 4.113 6.219 9.637 6.219 15.719 c 0 12.703 -10.297 23 -23 23 c -6.081 0 -11.606 -2.364 -15.719 -6.219 c 4.16 4.144 9.883 6.719 16.219 6.719 c 12.703 0 23 -10.298 23 -23 c 0 -6.335 -2.575 -12.06 -6.719 -16.219 z" style="opacity:0.05"/>
  <path d="m 41.28 8.781 c 3.712 4.085 5.969 9.514 5.969 15.469 c 0 12.703 -10.297 23 -23 23 c -5.954 0 -11.384 -2.256 -15.469 -5.969 c 4.113 3.854 9.637 6.219 15.719 6.219 c 12.703 0 23 -10.298 23 -23 c 0 -6.081 -2.364 -11.606 -6.219 -15.719 z" style="opacity:0.1"/>
  <path d="m 31.25 2.375 c 8.615 3.154 14.75 11.417 14.75 21.13 c 0 12.426 -10.07 22.5 -22.5 22.5 c -9.708 0 -17.971 -6.135 -21.12 -14.75 a 23 23 0 0 0 44.875 -7 a 23 23 0 0 0 -16 -21.875 z" style="opacity:0.2"/>
 </g>
 <g>
  <path d="m 24 1 c 12.703 0 23 10.297 23 23 c 0 12.703 -10.297 23 -23 23 -12.703 0 -23 -10.297 -23 -23 0 -12.703 10.297 -23 23 -23 z" style="fill:url(#linearGradient3869);fill-opacity:1"/>
 </g>
 <g>
  <path d="m 40.03 7.531 c 3.712 4.084 5.969 9.514 5.969 15.469 0 12.703 -10.297 23 -23 23 c -5.954 0 -11.384 -2.256 -15.469 -5.969 4.178 4.291 10.01 6.969 16.469 6.969 c 12.703 0 23 -10.298 23 -23 0 -6.462 -2.677 -12.291 -6.969 -16.469 z" style="opacity:0.1"/>
 </g>
 <g transform="matrix(3.543307,0,0,3.543307,0.00157507,-0.00379936)">
  <g>
   <path d="m 6.852 5.831 -0.147 -0.006 -0.415 0.231 -0.317 -0.348 -2.457 0.277 -0.13 0.974 0.117 0 0.084 0.236 0.122 0 c 0 0 0.064 0.263 0.136 0.497 -0.305 0.151 -0.348 0.277 -0.289 0.577 0.115 0.582 0.933 1.327 1.241 1.327 l 4.854 0 c 0.605 0 0.971 -0.724 1.057 -1.098 0.026 -0.113 0.023 -0.212 0.007 -0.32 -0.015 -0.108 -0.1 -0.23 -0.159 -0.28 -0.178 -0.147 -0.259 -0.157 -0.715 -0.157 -0.158 -0.148 -0.681 -0.525 -0.681 -0.525 l -2.382 -0.126 0.113 -0.261 -0.25 -0.311 0.321 -0.264 0.054 -0.136 2.164 -1.544 0.181 -0.019 0.416 -0.329 -0.215 -0.273 -0.453 0.28 -0.063 0.171 z m -2.38 3.269 c 0.02 0.078 0.047 0.132 0.084 0.206 -0.101 -0.072 -0.199 -0.144 -0.298 -0.224 m 5.949 0.038 c -0.085 0.097 -0.191 0.17 -0.353 0.261 0.094 -0.106 0.103 -0.175 0.115 -0.261 m -3.62 0.168 c 0.046 0.079 0.043 0.134 0.118 0.194 -0.119 0 -0.237 0 -0.356 -0.002 0.075 -0.052 0.142 -0.119 0.19 -0.192 m 0.966 0.003 c 0.053 0.083 0.067 0.138 0.134 0.187 -0.088 0 -0.204 0.003 -0.352 0.004 0.067 -0.053 0.125 -0.117 0.169 -0.191 m -1.8 0 c 0.099 0.128 0.083 0.141 0.138 0.19 -0.119 0 -0.238 0 -0.357 0.002 0.12 -0.1 0.126 -0.127 0.169 -0.192 m 3.74 0.002 c 0.039 0.088 0.057 0.122 0.131 0.19 -0.12 0.003 -0.204 0 -0.324 0 0.081 -0.069 0.117 -0.129 0.153 -0.19 m -1.093 0.19 c 0.066 -0.056 0.108 -0.11 0.153 -0.194 0.001 0 0.039 0 0.039 0 0.055 0.115 0.112 0.162 0.149 0.194" style="fill:#000;opacity:0.1;fill-opacity:1;stroke:none;fill-rule:nonzero"/>
   <path d="m 6.57 5.549 -0.147 -0.006 -0.415 0.231 -0.317 -0.348 -2.457 0.277 l -0.13 0.974 0.117 0 0.084 0.236 0.122 0 c 0 0 0.064 0.263 0.136 0.497 c -0.305 0.151 -0.348 0.277 -0.289 0.577 0.115 0.582 0.933 1.327 1.241 1.327 l 4.854 0 c 0.605 0 0.971 -0.724 1.057 -1.098 0.026 -0.113 0.023 -0.212 0.007 -0.32 -0.015 -0.108 -0.1 -0.23 -0.159 -0.28 c -0.178 -0.147 -0.259 -0.157 -0.715 -0.157 -0.158 -0.148 -0.681 -0.525 -0.681 -0.525 l -2.382 -0.126 0.113 -0.261 -0.25 -0.311 0.321 -0.264 0.054 -0.136 2.164 -1.544 0.181 -0.019 0.416 -0.329 -0.215 -0.273 -0.453 0.28 -0.063 0.171 m -4.574 4.696 c 0.02 0.078 0.047 0.132 0.084 0.206 -0.101 -0.072 -0.199 -0.144 -0.298 -0.224 m 5.949 0.038 c -0.085 0.097 -0.191 0.17 -0.353 0.261 0.094 -0.106 0.103 -0.175 0.115 -0.261 m -3.62 0.168 c 0.046 0.079 0.043 0.134 0.118 0.194 -0.119 0 -0.237 0 -0.356 -0.002 0.075 -0.052 0.142 -0.119 0.19 -0.192 m 0.966 0.003 c 0.053 0.083 0.067 0.138 0.134 0.187 -0.088 0 -0.204 0.003 -0.352 0.004 0.067 -0.053 0.125 -0.117 0.169 -0.191 m -1.8 0 c 0.099 0.128 0.083 0.141 0.138 0.19 -0.119 0 -0.238 0 -0.357 0.002 0.12 -0.1 0.126 -0.127 0.169 -0.192 m 3.74 0.002 c 0.039 0.088 0.057 0.122 0.131 0.19 -0.12 0.003 -0.204 0 -0.324 0 0.081 -0.069 0.117 -0.129 0.153 -0.19 m -1.093 0.19 c 0.066 -0.056 0.108 -0.11 0.153 -0.194 0.001 0 0.039 0 0.039 0 0.055 0.115 0.112 0.162 0.149 0.194" style="fill:#2b2b35;fill-opacity:1;stroke:none;fill-rule:nonzero"/>
  </g>
 </g>
</svg>

<svg xmlns="http://www.w3.org/2000/svg" viewBox="0 0 48 48">
 <defs>
  <linearGradient id="linearGradient3869" y1="47" x2="0" y2="1" gradientUnits="userSpaceOnUse">
   <stop style="stop-color:#e93535;stop-opacity:1"/>
   <stop offset="1" style="stop-color:#eb4747;stop-opacity:1"/>
  </linearGradient>
 </defs>
 <g>
  <path d="m 36.31 5 c 5.859 4.062 9.688 10.831 9.688 18.5 c 0 12.426 -10.07 22.5 -22.5 22.5 c -7.669 0 -14.438 -3.828 -18.5 -9.688 c 1.037 1.822 2.306 3.499 3.781 4.969 c 4.085 3.712 9.514 5.969 15.469 5.969 c 12.703 0 23 -10.298 23 -23 c 0 -5.954 -2.256 -11.384 -5.969 -15.469 c -1.469 -1.475 -3.147 -2.744 -4.969 -3.781 z m 4.969 3.781 c 3.854 4.113 6.219 9.637 6.219 15.719 c 0 12.703 -10.297 23 -23 23 c -6.081 0 -11.606 -2.364 -15.719 -6.219 c 4.16 4.144 9.883 6.719 16.219 6.719 c 12.703 0 23 -10.298 23 -23 c 0 -6.335 -2.575 -12.06 -6.719 -16.219 z" style="opacity:0.05"/>
  <path d="m 41.28 8.781 c 3.712 4.085 5.969 9.514 5.969 15.469 c 0 12.703 -10.297 23 -23 23 c -5.954 0 -11.384 -2.256 -15.469 -5.969 c 4.113 3.854 9.637 6.219 15.719 6.219 c 12.703 0 23 -10.298 23 -23 c 0 -6.081 -2.364 -11.606 -6.219 -15.719 z" style="opacity:0.1"/>
  <path d="m 31.25 2.375 c 8.615 3.154 14.75 11.417 14.75 21.13 c 0 12.426 -10.07 22.5 -22.5 22.5 c -9.708 0 -17.971 -6.135 -21.12 -14.75 a 23 23 0 0 0 44.875 -7 a 23 23 0 0 0 -16 -21.875 z" style="opacity:0.2"/>
 </g>
 <g>
  <path d="m 24 1 c 12.703 0 23 10.297 23 23 c 0 12.703 -10.297 23 -23 23 -12.703 0 -23 -10.297 -23 -23 0 -12.703 10.297 -23 23 -23 z" style="fill:url(#linearGradient3869);fill-opacity:1"/>
 </g>
 <g>
  <path d="m 40.03 7.531 c 3.712 4.084 5.969 9.514 5.969 15.469 0 12.703 -10.297 23 -23 23 c -5.954 0 -11.384 -2.256 -15.469 -5.969 4.178 4.291 10.01 6.969 16.469 6.969 c 12.703 0 23 -10.298 23 -23 0 -6.462 -2.677 -12.291 -6.969 -16.469 z" style="opacity:0.1"/>
 </g>
 <g transform="matrix(3.543307,0,0,3.543307,0.00157507,-0.00379936)">
  <g>
   <path d="M 6.769,5.775 6.624,5.769 6.214,6 5.946,5.708 3.515,5.985 3.386,6.959 l 0.116,0 0.084,0.236 0.121,0 c 0,0 0.063,0.263 0.135,0.497 C 3.539,7.843 3.52,7.965 3.556,8.269 3.694,8.846 4.362,9.441 4.813,9.578 4.888,9.607 5.881,9.594 7.215,9.592 9.437,9.589 9.557,9.595 9.673,9.556 10.244,9.46 10.603,8.956 10.697,8.584 10.714,8.469 10.735,8.372 10.719,8.264 10.704,8.156 10.62,8.033 10.561,7.983 10.384,7.836 10.244,7.783 9.791,7.783 9.606,7.641 9.059,7.258 9.059,7.258 L 6.752,7.118 6.874,6.829 6.56,6.462 6.878,6.198 6.932,6.062 9.08,4.518 9.26,4.499 9.674,4.17 9.458,3.898 9.01,4.178 8.947,4.349 Z M 4.463,9.1 C 4.483,9.178 4.51,9.232 4.546,9.306 4.446,9.234 4.349,9.162 4.25,9.082 M 10.182,9.12 C 10.098,9.217 9.992,9.29 9.832,9.381 9.925,9.275 9.934,9.206 9.946,9.12 M 6.325,9.288 C 6.371,9.367 6.368,9.422 6.442,9.482 6.324,9.4819 6.207,9.4819 6.089,9.48 6.164,9.428 6.23,9.361 6.277,9.288 M 7.235,9.291 C 7.288,9.374 7.301,9.429 7.368,9.478 7.281,9.4781 7.166,9.481 7.019,9.482 7.085,9.429 7.143,9.365 7.187,9.291 m -1.786,10e-5 c 0.098,0.128 0.083,0.141 0.137,0.19 -0.118,10e-5 -0.236,10e-5 -0.354,0.002 0.119,-0.1 0.125,-0.127 0.168,-0.192 m 3.711,0.002 c 0.039,0.088 0.056,0.122 0.13,0.19 -0.119,0.003 -0.202,10e-5 -0.322,0 0.08,-0.069 0.116,-0.129 0.152,-0.19 m -1.085,0.19 c 0.065,-0.056 0.107,-0.11 0.152,-0.194 10e-4,10e-5 0.039,0 0.039,0 0.055,0.115 0.111,0.162 0.147,0.194" style="fill:#000;fill-opacity:0.118;stroke:none;fill-rule:nonzero"/>
   <path d="M 6.57,5.549 6.423,5.543 6.008,5.774 5.691,5.426 3.234,5.703 l -0.13,0.974 0.117,0 0.084,0.236 0.122,0 c 0,0 0.064,0.263 0.136,0.497 C 3.258,7.561 3.239,7.683 3.274,7.987 3.413,8.564 4.086,9.159 4.541,9.296 4.616,9.325 5.617,9.312 6.962,9.31 9.201,9.307 9.288,9.313 9.405,9.274 9.98,9.178 10.331,8.588 10.426,8.216 10.443,8.101 10.449,8.004 10.433,7.896 10.418,7.788 10.333,7.666 10.274,7.616 10.096,7.469 10.015,7.459 9.559,7.459 9.401,7.311 8.878,6.934 8.878,6.934 L 6.496,6.808 6.609,6.547 6.359,6.236 6.68,5.972 6.734,5.836 8.898,4.292 9.079,4.273 9.495,3.944 9.28,3.671 8.827,3.951 8.764,4.122 Z M 4.19,8.818 C 4.21,8.896 4.237,8.95 4.274,9.024 4.173,8.952 4.075,8.88 3.976,8.8 M 9.925,8.838 C 9.84,8.935 9.734,9.008 9.572,9.099 9.666,8.993 9.675,8.924 9.687,8.838 M 6.067,9.006 C 6.113,9.085 6.11,9.14 6.185,9.2 6.066,9.1999 5.948,9.1999 5.829,9.198 5.904,9.146 5.971,9.079 6.019,9.006 M 6.985,9.009 C 7.038,9.092 7.052,9.147 7.119,9.196 7.031,9.1961 6.915,9.199 6.767,9.2 6.834,9.147 6.892,9.083 6.936,9.009 m -1.8,10e-5 c 0.099,0.128 0.083,0.141 0.138,0.19 -0.119,10e-5 -0.238,10e-5 -0.357,0.002 0.12,-0.1 0.126,-0.127 0.169,-0.192 m 3.74,0.002 c 0.039,0.088 0.057,0.122 0.131,0.19 -0.12,0.003 -0.204,10e-5 -0.324,0 0.081,-0.069 0.117,-0.129 0.153,-0.19 m -1.093,0.19 c 0.066,-0.056 0.108,-0.11 0.153,-0.194 0.001,10e-5 0.039,0 0.039,0 0.055,0.115 0.112,0.162 0.149,0.194" style="fill:#2b2b35;fill-opacity:1;stroke:none;fill-rule:nonzero"/>
  </g>
 </g>
</svg>
